X: 382
T: A Thought For Ukraine
R: reel
M: 4/4
K: Dminor
|:"Dm"fedf edcB|"Dm"A2F A2F AF|"Gm"G2 A B2 A GB|"Dm"A2 F2 "A"~E2 ~E2|
"Dm"fedf edcB|"Dm"A2F A2F AF|"A"E2 AB AGFE|"Dm"D2 A,2 D4:|
|:"Dm"fddf fddf|"Gm"B [g2B2] B [g2B2] [g2B2]|"Dm"f2 ff "Bb"edcB|"Dm"A2 F2 "A"~E2 ~E2|
"Dm"fddf fddf|"Gm"B [g2B2] B [g2B2] [g2B2]|"Dm"f2 ff "A"ed^cA|"Dm"d8:|

